src/assets/selectIcons/materiale_10.svg

<svg xmlns="http://www.w3.org/2000/svg" viewBox="0 0 512 512" style="height: 512px; width: 512px;"><path d="M0 0h512v512H0z" fill="#000" fill-opacity="1"></path><g class="" transform="translate(0,0)" style=""><path d="M164.72 29.125c-1.535.012-3.06.03-4.595.063-14.043.306-28.164 1.517-42.313 3.687h-.03c-40.47 6.208-68.176 25.313-83.407 50-15.23 24.687-18.025 54.264-11.53 81.28 6.492 27.02 22.268 51.823 45.405 67.126 23.137 15.304 53.82 20.5 87.156 8.564 88.876-31.822 154.224-18.526 202 22.125 47.297 40.24 77.402 109.05 90.25 190.53 9.29 10.237-.1.206 9.657 10.375 9.74-8.25-.16-.032 9.593-8.406 49.368-122.298 18.986-236.885-52.062-315.69C353.21 70.42 261.34 28.377 164.72 29.126zm129.718 69.53L385.125 135c4.922 4.69 9.668 9.56 14.25 14.563-4.09-2.25-8.194-3.45-11.938-3.563-10.212-.307-17.585 7.21-13.593 21.875 8.252 30.456 55.747 34.927 45.187 5.5 9.34 12.627 17.642 26.007 24.75 40.03-6.273-8.833-12.323-12.982-17.342-13.093-13.9-.306-19.88 30.236-.875 77.188 20.765 51.37 43.424 59.815 45.906 31.438 3.183 34.31-.184 70.722-11.408 108.437-15.63-70.58-45.05-130.96-90.53-169.656-14.414-12.265-30.428-22.22-48-29.532l-40.907-22.313 77.53 2.938-111.25-56 102.22 5.03z" fill="#fff" fill-opacity="1"></path></g></svg>

<?xml version="1.0" encoding="UTF-8" standalone="no"?>
<!DOCTYPE svg PUBLIC "-//W3C//DTD SVG 1.1//EN" "http://www.w3.org/Graphics/SVG/1.1/DTD/svg11.dtd">
<svg width="100%" height="100%" viewBox="0 0 512 512" version="1.1" xmlns="http://www.w3.org/2000/svg" xmlns:xlink="http://www.w3.org/1999/xlink" xml:space="preserve" xmlns:serif="http://www.serif.com/" style="fill-rule:evenodd;clip-rule:evenodd;stroke-linejoin:round;stroke-miterlimit:2;">
    <rect x="0" y="0" width="512" height="512" style="fill-rule:nonzero;"/>
    <g>
        <path d="M164.72,29.125C163.185,29.137 161.66,29.155 160.125,29.188C146.082,29.494 131.961,30.705 117.812,32.875L117.782,32.875C77.312,39.083 49.606,58.188 34.375,82.875C19.145,107.562 16.35,137.139 22.845,164.155C29.337,191.175 45.113,215.978 68.25,231.281C91.387,246.585 122.07,251.781 155.406,239.845C244.282,208.023 309.63,221.319 357.406,261.97C404.703,302.21 434.808,371.02 447.656,452.5C456.946,462.737 447.556,452.706 457.313,462.875C467.053,454.625 457.153,462.843 466.906,454.469C516.274,332.171 485.892,217.584 414.844,138.779C353.21,70.42 261.34,28.377 164.72,29.126L164.72,29.125ZM294.438,98.655L385.125,135C390.047,139.69 394.793,144.56 399.375,149.563C395.285,147.313 391.181,146.113 387.437,146C377.225,145.693 369.852,153.21 373.844,167.875C382.096,198.331 429.591,202.802 419.031,173.375C428.371,186.002 436.673,199.382 443.781,213.405C437.508,204.572 431.458,200.423 426.439,200.312C412.539,200.006 406.559,230.548 425.564,277.5C446.329,328.87 468.988,337.315 471.47,308.938C474.653,343.248 471.286,379.66 460.062,417.375C444.432,346.795 415.012,286.415 369.532,247.719C355.118,235.454 339.104,225.499 321.532,218.187L280.625,195.874L358.155,198.812L246.905,142.812L349.125,147.842L294.438,98.655Z" style="fill:rgb(128,231,130);fill-rule:nonzero;"/>
    </g>
</svg>
